X:17
T:Lightly Tripping
R:set dance
H:Taken down from Ned Goggin, the  professional fiddler of Glenosheen, Co.
H:Limerick, about 1848.
B:
M:6/8
L:1/8
K:D
d2 D D2 E|FAF E2 G|FED AFD|G3 F2 A|
d2 D D2 E|FAF E2 G|FED AFD|E3 D3||
d3 ede|fdd cBA|Bcd AFD|F3 E3|
d3 ede|fdd cBA|Bcd AFD|E3 D3||
